X:1
T:Title
%%score { ( 1 3 ) | ( 2 4 5 ) }
L:1/8
Q:1/4=100
M:3/4
K:Eb
V:1 treble nm="Grand Piano"
V:3 treble 
V:2 bass 
V:4 bass 
V:5 bass 
V:1
 E>G B2 B2 | c>B G [B,GB]3 | [EAc]>[EAc] [EGB]2 [B,EG]2 | [B,F]>[=A,CE] [B,DF]2 z2 | %4
w: P.~P.~Van~Arsdale * * *||||
 [G,E]>[B,EG] [EGB]2 [EGB]2 | [EAc]>[EGB] [EG] [EGB]3 | [EBe]>[EAc] [EGB]2 [EG]2 | %7
w: |||
 [A,DF]>[G,E] [G,E]4 | (3[DB]cd e2 [GB]2 | [Ac]>[GB] [GB]2 [B,EG]2 | (3[DB]cd e2 e2 | %11
w: ||||
 d>c [DB]2 z2 | z2 e2 z2 | [GB]>[Ac] [GB]2 [B,EG]2 | [CEF]>[Ec] [EB]2 [EG]2 | [DF]>E E4 |] %16
w: |||||
V:2
 [E,G,]>[E,B,E] [E,G,E]2 [E,G,E]2 | [E,A,E]>[E,G,E] [E,B,E] E,3 | A,,>C, E,2 E,2 | D,>C, B,,2 z2 | %4
 E,>E, E,2 E,2 | E,>E, E, E,3 | G,>A, B,2 B,2 | B,,>E, E,4 | %8
 (3z[K:treble] EF[K:bass] [G,B,E]2 [E,E]2 | [E,E]>[E,E] [E,E]2 E,2 | %10
 (3z[K:treble] EF [G,B,E]2 [=A,CF]2 | [B,F]>[K:bass][F,=A,E] [B,,B,]2 z2 | %12
 [D,A,]>[D,A,] .[E,G,E]2 [E,E]2 | [E,E]>[E,E] [E,E]2 E,2 | A,,>[A,,A,] [B,,G,]2 [B,,B,]2 | %15
 [B,,A,]>[E,G,] [E,G,]4 |] %16
V:3
 x6 | x6 | x6 | x6 | x6 | x6 | x6 | x6 | z z/ B,/ z2 z2 | x6 | z z/ B,/ z2 z2 | x6 | %12
 [Fc]>[FB] z B, [Ac]2 | x6 | x6 | x6 |] %16
V:4
 x6 | x6 | x6 | x6 | x6 | x6 | x6 | x6 | B,2[K:treble][K:bass] z2 z2 | x6 | B,2[K:treble] z2 z2 | %11
 x3/2[K:bass] x9/2 | x6 | x6 | x6 | x6 |] %16
V:5
 x6 | x6 | x6 | x6 | x6 | x6 | x6 | x6 | z[K:treble] z/[K:bass] A,/ z2 z2 | x6 | %10
 z[K:treble] z/ A,/ z2 z2 | x3/2[K:bass] x9/2 | x6 | x6 | x6 | x6 |] %16

